ui_kit/lib/assets/icons/send_message.svg

<svg width="18" height="18" viewBox="0 0 18 18" fill="none" xmlns="http://www.w3.org/2000/svg">
<path fill-rule="evenodd" clip-rule="evenodd" d="M1.70061 0.195113C2.09443 0.124914 2.50039 0.182512 2.85915 0.359491L2.86705 0.363387L17.1275 7.60768C17.3434 7.71749 17.525 7.88507 17.6517 8.09154C17.7769 8.29578 17.8439 8.53036 17.8453 8.76985C17.8453 8.77234 17.8453 8.77484 17.8453 8.77734C17.8453 8.77822 17.8453 8.77909 17.8453 8.77996C17.8449 9.02141 17.7779 9.25807 17.6517 9.46391C17.525 9.67039 17.3437 9.83779 17.1279 9.9476L2.85917 17.2058C2.50042 17.3827 2.09443 17.4403 1.70061 17.3701C1.30678 17.2999 0.945726 17.1056 0.670212 16.8155C0.394699 16.5255 0.219169 16.155 0.169275 15.758C0.119382 15.3611 0.19774 14.9587 0.392898 14.6095C0.397729 14.6008 0.40273 14.5923 0.407899 14.5838L3.96156 8.77768L0.408195 2.98186C0.402921 2.97326 0.397821 2.96455 0.392898 2.95574C0.19774 2.60654 0.119382 2.20407 0.169275 1.80716C0.219169 1.41025 0.394699 1.0397 0.670212 0.749664C0.945725 0.459628 1.30678 0.265312 1.70061 0.195113ZM15.3227 8.02734L2.19264 1.7033C2.1216 1.66901 2.04153 1.65798 1.96383 1.67184C1.88506 1.68587 1.81285 1.72474 1.75775 1.78275C1.70265 1.84075 1.66754 1.91486 1.65756 1.99424C1.64804 2.06996 1.66186 2.14668 1.69702 2.21421L5.4361 8.02734H15.3227ZM5.39893 9.52734H15.3232L2.1925 15.862C2.1215 15.8962 2.04148 15.9072 1.96383 15.8934C1.88506 15.8793 1.81285 15.8405 1.75775 15.7825C1.70265 15.7244 1.66754 15.6503 1.65756 15.571C1.64804 15.4952 1.66188 15.4184 1.69712 15.3508L5.39893 9.52734Z" fill="#E0ECFF" fill-opacity="0.8"/>
</svg>

<svg xmlns="http://www.w3.org/2000/svg" width="18" height="18" fill="none" viewBox="0 0 18 18"><path fill="#E0ECFF" fill-opacity=".8" fill-rule="evenodd" d="M1.7.195c.394-.07.8-.012 1.16.164l.007.004 14.26 7.245a1.314 1.314 0 0 1 .718 1.162v.01a1.313 1.313 0 0 1-.717 1.168L2.859 17.206a1.876 1.876 0 0 1-2.451-2.622l3.554-5.806L.408 2.982A1.875 1.875 0 0 1 1.7.195Zm13.623 7.832L2.193 1.703a.375.375 0 0 0-.496.511l3.74 5.813h9.886Zm-9.924 1.5h9.924l-13.13 6.335a.376.376 0 0 1-.496-.511L5.4 9.527Z" clip-rule="evenodd"/></svg>
